src/icons/send.svg

<svg width="24" height="24" viewBox="0 0 24 24" fill="none" xmlns="http://www.w3.org/2000/svg">
<path fill-rule="evenodd" clip-rule="evenodd" d="M3 1V11H4V13H3V23L24 11.9999L3 1ZM5 13V19.5L20 11.9999L5 4.49997V11H12L13 12L12 13H5Z" fill="black"/>
</svg>

<svg xmlns="http://www.w3.org/2000/svg" width="24" height="24" fill="none"><path fill="currentColor" fill-rule="evenodd" d="M3 1v10h1v2H3v10l21-11zm2 12v6.5L20 12 5 4.5V11h7l1 1-1 1z" clip-rule="evenodd"/></svg>
